Phone repair/img/speaker-audio.svg

<svg width="30" height="30" viewBox="0 0 30 30" fill="none" xmlns="http://www.w3.org/2000/svg">
<path d="M15.009 24.3517C15.009 24.8801 14.7037 25.3603 14.2258 25.5844C14.041 25.6718 13.8431 25.714 13.6464 25.714C13.3349 25.714 13.0263 25.6069 12.777 25.4003L5.32911 19.2286H1.36235C0.610073 19.2292 0 18.6188 0 17.8666V12.4388C0 11.6862 0.610073 11.0761 1.36235 11.0761H5.32943L12.7774 4.90443C13.1843 4.56715 13.7486 4.49524 14.2261 4.72096C14.7037 4.94506 15.0094 5.42551 15.0094 5.95368L15.009 24.3517ZM20.2446 22.2228C20.2114 22.2251 20.1795 22.2264 20.1466 22.2264C19.7868 22.2264 19.4398 22.0842 19.1835 21.8275L19.0013 21.6447C18.5234 21.1678 18.4673 20.4123 18.8697 19.8699C19.8899 18.4944 20.4284 16.8637 20.4284 15.1531C20.4284 13.3133 19.8171 11.5875 18.6601 10.1623C18.2197 9.62057 18.2603 8.83379 18.7539 8.34045L18.9358 8.15826C19.208 7.88612 19.5726 7.73779 19.9673 7.76133C20.3517 7.78068 20.7106 7.96157 20.9543 8.25951C22.5592 10.2232 23.4069 12.6074 23.4069 15.1535C23.4069 17.5248 22.6572 19.7819 21.2384 21.6798C21.0014 21.9962 20.639 22.1948 20.2446 22.2228ZM25.8772 26.4331C25.6308 26.7242 25.2745 26.899 24.8931 26.9151C24.8743 26.9158 24.8553 26.9164 24.836 26.9164C24.4752 26.9164 24.1289 26.7739 23.8725 26.5175L23.6935 26.3386C23.1934 25.8388 23.1596 25.0394 23.6142 24.4984C25.8114 21.8852 27.0219 18.5666 27.0219 15.1531C27.0219 11.6027 25.7259 8.18471 23.3737 5.52902C22.8968 4.98988 22.921 4.17376 23.4285 3.66429L23.6071 3.48533C23.8722 3.21899 24.2166 3.07228 24.6116 3.08485C24.9866 3.09549 25.3413 3.26123 25.5905 3.54176C28.4339 6.74304 30 10.8672 30 15.1531C30.0006 19.2769 28.5364 23.2831 25.8772 26.4331Z" fill="#FF005C"/>
</svg>

<svg width="30" height="30" fill="none" xmlns="http://www.w3.org/2000/svg"><path d="M15.009 24.352a1.361 1.361 0 0 1-2.232 1.048L5.329 19.23H1.362C.61 19.229 0 18.619 0 17.867v-5.428c0-.753.61-1.363 1.362-1.363H5.33l7.448-6.172a1.362 1.362 0 0 1 2.232 1.05v18.398Zm5.236-2.13a1.36 1.36 0 0 1-1.061-.395L19 21.646a1.362 1.362 0 0 1-.131-1.775 7.862 7.862 0 0 0 1.558-4.717c0-1.84-.61-3.566-1.768-4.99-.44-.542-.4-1.33.094-1.823l.182-.182a1.364 1.364 0 0 1 2.018.101 10.774 10.774 0 0 1 2.453 6.894c0 2.372-.75 4.629-2.169 6.527-.237.316-.599.515-.993.543Zm5.632 4.211a1.364 1.364 0 0 1-2.005.084l-.178-.178c-.5-.5-.534-1.3-.08-1.84a14.543 14.543 0 0 0 3.408-9.346c0-3.55-1.296-6.968-3.648-9.624a1.363 1.363 0 0 1 .055-1.865l.178-.179c.265-.266.61-.413 1.005-.4.375.01.73.176.979.457A17.468 17.468 0 0 1 30 15.153c0 4.124-1.464 8.13-4.123 11.28Z" fill="#FF005C"/></svg>
